resources/haticons/SVG/visibility_off.svg

<!-- Generated by IcoMoon.io -->
<svg version="1.1" xmlns="http://www.w3.org/2000/svg" width="24" height="24" viewBox="0 0 24 24">
<title>visibility_off</title>
<path d="M11.859 9h0.141q1.219 0 2.109 0.891t0.891 2.109v0.188zM7.547 9.797q-0.563 1.125-0.563 2.203 0 2.063 1.477 3.539t3.539 1.477q1.078 0 2.203-0.563l-1.547-1.547q-0.375 0.094-0.656 0.094-1.219 0-2.109-0.891t-0.891-2.109q0-0.281 0.094-0.656zM2.016 4.266l1.266-1.266 17.719 17.719-1.266 1.266q-0.234-0.234-1.477-1.453t-1.898-1.875q-2.016 0.844-4.359 0.844-3.703 0-6.703-2.063t-4.313-5.438q0.516-1.219 1.617-2.695t2.133-2.273q-0.563-0.563-1.57-1.594t-1.148-1.172zM12 6.984q-0.938 0-1.828 0.375l-2.156-2.156q1.828-0.703 3.984-0.703 3.703 0 6.68 2.063t4.289 5.438q-1.125 2.766-3.422 4.734l-2.906-2.906q0.375-0.891 0.375-1.828 0-2.063-1.477-3.539t-3.539-1.477z"></path>
</svg>

<svg xmlns="http://www.w3.org/2000/svg" width="24" height="24"><path d="M11.859 9H12q1.219 0 2.109.891T15 12v.188zm-4.312.797Q6.984 10.922 6.984 12q0 2.063 1.477 3.539T12 17.016q1.078 0 2.203-.563l-1.547-1.547Q12.281 15 12 15q-1.219 0-2.109-.891T9 12q0-.281.094-.656zM2.016 4.266L3.282 3l17.719 17.719-1.266 1.266q-.234-.234-1.477-1.453t-1.898-1.875q-2.016.844-4.359.844-3.703 0-6.703-2.063T.985 12q.516-1.219 1.617-2.695t2.133-2.273q-.563-.563-1.57-1.594T2.017 4.266zM12 6.984q-.938 0-1.828.375L8.016 5.203Q9.844 4.5 12 4.5q3.703 0 6.68 2.063t4.289 5.438q-1.125 2.766-3.422 4.734l-2.906-2.906q.375-.891.375-1.828 0-2.063-1.477-3.539T12 6.985z"/></svg>
